X:1
T:Gånglåt utmed Loch Lomond
R:Gånglåt
O:Småland
M:2/4
L:1/8
K:G
Z:Bo Bernvill
D/2E/2|:GG/2A/2 BB/2d/2 | c/2B/2A/2G/2 ED/2E/2 | GG/2A/2 BB/2d/2 | E2 DD/2E/2 | GG/2A/2 BB/2d/2 | c/2B/2A/2G/2 E g/2f/2 | e/2d/2e/2B/2 c/2B/2A/2G/2 | AD DD/2E/2 :: G/2A/2B/2c/2 dd/2B/2 | e/2d/2c/2B/2 AB/2c/2 | d/2g/2f/2g/2 e/2d/2c/2B/2 | AA/2G/2 AD/2E/2 | G/2A/2B/2c/2 dd/2B/2 | e/2d/2c/2B/2 AB/2c/2 | d/2g/2e/2c/2 d/2B/2c/2A/2 | GG/2F/2 GD/2E/2 :|

